**kern	**kern	**kern	**dynam
*part1	*part1	*part1	*part1
*staff3	*staff2	*staff1	*staff1
*I"Piano	*IPiano	*IPiano	*IPiano
*clefF4	*clefG2	*clefG2	*clefG2
*k[f#c#]	*k[f#c#]	*k[f#c#]	*k[f#c#]
*M6/8	*M6/8	*M6/8	*M6/8
=1	=1	=1	=1
!Tempo Marking: Scherzando	!Tempo Marking: Scherzando	!Tempo Marking: Scherzando	!Tempo Marking: Scherzando
2.r	2.c#~	8r	pp
.	.	(>8g'L 8a 8b-	.
.	.	[8cc#J [8ffn	.
.	.	8cc#L] 8ff]	.
.	.	8g' 8a 8b-	.
.	.	[8c#J)	.
=2	=2	=2	=2
*M9/8	*M9/8	*M9/8	*M9/8
*	*	*^	*
8%9ryy	8%9ryy	2.c#]	8r	.
.	.	.	(<8g'L 8a 8bn	.
.	.	.	[8cc#J [8ff#X	.
.	.	.	8cc#L] 8ff#]	.
.	.	.	8g' 8a 8b	.
.	.	.	[8c#J)	.
.	.	4ryy	4.c#]	.
.	.	8ryy	.	.
*	*	*v	*v	*
*	*clefF4	*	*
=3	=3	=3	=3
*M6/8	*M6/8	*M6/8	*M6/8
[2.AAA	8r	2.r	pp
.	(>8G'L 8A 8B	.	.
*	*clefG2	*	*
.	8c#'J 8f#	.	.
.	8g'L 8a 8b	.	.
.	8cc#' 8ff#	.	.
.	8gg'J 8aa 8bb	.	.
=4	=4	=4	=4
4.AAA]	8ccc#') 8fff#	4r	.
.	8r	.	.
.	8r	8r	.
8r	8d'L 8g# 8cc#	(>24ddLL	mf<
.	.	24gg#	.
.	.	24ccc#)	.
4r	8B' 8e# 8a#	(>24aa#	.
.	.	24ee#	.
.	.	24bJ)	.
.	.	(<32qqb-/LLL	.
.	.	32qqeen/JJJ	.
.	8B-'J 8en 8an	8aan'J)	.
*	*clefF4	*	*
=5	=5	=5	=5
[2.AAA	8r	2.r	[pp
.	(>8Gn'L 8A 8Bn	.	pp
*	*clefG2	*	*
.	8c#'J 8f#	.	.
.	8g'L 8a 8b	.	.
.	8cc#' 8ff#	.	.
.	8gg'J 8aa 8bb	.	.
=6	=6	=6	=6
4.AAA]	8ccc#') 8fff#	4r	.
.	8r	.	.
.	8r	8r	.
8r	8d'L 8g# 8cc#	(>24ddLL	mf<
.	.	24gg#	.
.	.	24ccc#)	.
4r	8B' 8e# 8a#	(>24aa#	.
.	.	24ee#	.
.	.	24bJ)	.
.	.	(<32qqb-/LLL	.
.	.	32qqeen/JJJ	.
.	8B-'J 8en 8an	8aan'J)	.
=7	=7	=7	=7
*	*clefF4	*	*
2.r	4r	4r	[
.	8r	8r	.
.	8Gn'L 8c# 8f#	(>24gnLL	>
.	.	24cc#	.
.	.	24ff#)	.
.	8E' 8A# 8d#	(>24dd#	.
.	.	24a#	.
.	.	24eJ)	.
.	.	(<32qqe-/LLL	.
.	.	32qqan/JJJ	.
.	8E-'J 8An 8dn	8ddn'J)	]
*	*clefG2	*	*
=8	=8	=8	=8
!	!	!Expression: m.d.	!
2.BBB- 2.FFn	4ryy	(<32DLLL 32A-	p
.	.	32B-	.
.	.	32cn	.
.	.	32d	.
!	!	!Expression: m.g.	!
.	.	40g	<
.	.	40a-	.
.	.	40b-	.
.	.	40ccn	.
.	.	40dd	.
.	8r	40gg	.
.	.	40aa-	.
.	.	40bb-	.
.	.	40cccn	.
.	.	[40dddJJJ)	.
.	8dd'L	8dddL]	[
*	*	*8va	*
.	8dd#'	8ddd#' 8dddd#	>
.	8ee'J	8eee'J 8eeee	.
*	*	*X8va	*
=9	=9	=9	=9
2.BBB- 2.FFn	4.r	(<32DLLL 32A-	]
.	.	32B-	.
.	.	32cn	.
.	.	32d	.
.	.	40g	<
.	.	40a-	.
.	.	40b-	.
.	.	40ccn	.
.	.	40dd	.
.	.	40gg	.
.	.	40aa-	.
.	.	40bb-	.
.	.	40cccn	.
.	.	[40dddJJJ)	.
.	8dd'L	8dddL]	[
*	*	*8va	*
.	8dd#'	8ddd#' 8dddd#	>
.	8ee'J	8eee'J 8eeee	.
*	*	*X8va	*
=10	=10	=10	=10
!Tempo Marking: Retenu	!Tempo Marking: Retenu	!Tempo Marking: Retenu	!Tempo Marking: Retenu
2.ryy	2.ryy	8r	]pp
.	.	(<8d#L	.
.	.	8dn'J) 8e 8dd 8ee	.
.	.	8r	.
.	.	(<8d#L	>
.	.	8dn'ZJ) 8e	.
=11||	=11||	=11||	=11||
!Tempo Marking: au Mouvt	!Tempo Marking: au Mouvt	!Tempo Marking: au Mouvt	!Tempo Marking: au Mouvt
!	!Expression: scimtillant	!	!
.	(<32qqbb-/LLL	.	]
.	32qqaa/	.	.
.	32qqb-/	.	.
.	32qqa/	.	.
.	32qqB-/JJJ)	.	.
*	*^	*	*
2.ryy	4.A~	4.ryy	8r	.
!	!	!	!Expression: doux	!
.	.	.	(16e-LL	<
.	.	.	16f#J)	.
.	.	.	8e-'J	.
.	(<32qqbbn/LLL	.	.	[
.	32qqaa/	.	.	.
.	32qqbn/	.	.	.
.	32qqa/	.	.	.
.	32qqBn/JJJ)	.	.	.
.	4A~	8r	8ryy	.
.	.	(96e-LLL	4ryy	<
.	.	96f#	.	.
.	.	96g	.	.
.	.	96a	.	.
.	.	96b-	.	.
.	.	96cc#	.	[
.	.	96ee-	.	>
.	.	96dd	.	.
.	.	96b-	.	.
.	.	96a	.	.
.	.	96g	.	.
.	.	96f#JJ	.	.
.	8ryy	8e-J)	.	]
=12	=12	=12	=12	=12
.	(<32qqbb-/LLL	.	.	.
.	32qqaa/	.	.	.
.	32qqb-/	.	.	.
.	32qqa/	.	.	.
.	32qqB-/JJJ)	.	.	.
2.r	4.A~	4.ryy	8r	.
.	.	.	(16e-LL	<
.	.	.	16f#J)	.
.	.	.	8e-'J	.
.	(<32qqbbn/LLL	.	.	[
.	32qqaa/	.	.	.
.	32qqbn/	.	.	.
.	32qqa/	.	.	.
.	32qqBn/JJJ)	.	.	.
.	4A~	8r	8ryy	.
.	.	(96e-LLL	4ryy	<
.	.	96f#	.	.
.	.	96g	.	.
.	.	96a	.	.
.	.	96b-	.	.
.	.	96cc#	.	.
.	.	96ee-	.	[
.	.	96dd	.	>
.	.	96b-	.	.
.	.	96a	.	.
.	.	96g	.	.
.	.	96f#JJ	.	.
.	8ryy	8e-J)	.	]
=13	=13	=13	=13	=13
.	(<32qqbb-/LLL	.	.	.
.	32qqaa/	.	.	.
.	32qqb-/	.	.	.
.	32qqa/	.	.	.
.	32qqB-/JJJ)	.	.	.
2.r	4.A	8r	2.r	.
.	.	(<96e-XLLL	.	<
.	.	96f#	.	.
.	.	96g	.	.
.	.	96a	.	.
.	.	96b-	.	.
.	.	96cc#	.	.
.	.	96ee-	.	[
.	.	96dd	.	>
.	.	96b-	.	.
.	.	96a	.	.
.	.	96g	.	.
.	.	96f#JJ	.	.
.	.	8e-J)	.	]
.	4.A	8r	.	.
.	.	(<96e-LLL	.	<
.	.	96f#	.	.
.	.	96g	.	.
.	.	96a	.	.
.	.	96b-	.	.
.	.	96dd	.	.
.	.	96ee-	.	[
.	.	96dd	.	>
.	.	96b-	.	.
.	.	96a	.	.
.	.	96g	.	.
.	.	96f#JJ	.	.
.	.	8e-J)	.	]
*	*v	*v	*	*
*	*clefF4	*	*
=14	=14	=14	=14
!Tempo Marking: Rubato	!Tempo Marking: Rubato	!Tempo Marking: Rubato	!Tempo Marking: Rubato
*^	*	*	*
8DD'	[2.DD	(>4G#	(<40G#LLL	.
.	.	.	40D	.
.	.	.	40F#	.
.	.	.	40A	.
.	.	.	40d	<
[2AA'	.	.	40f#	.
.	.	.	40a	.
.	.	.	40dd	.
.	.	.	40ff#	.
.	.	.	[40aaJJJ)	.
.	.	4A	(>4a 4aa]	.
.	.	4e)	4ee) 4eee	[
8AA_	.	.	.	.
=15	=15	=15	=15	=15
2.AA_	2.DD_	8r	8r	.
!	!	!	!	!Dynamic Expression: dim.
.	.	(>8A'L	(>8a'L 8ee 8aa	.
.	.	8e'J)	8ee'J) 8eee	.
.	.	8r	8r	.
.	.	(>8A'L	(>8a'L 8ee 8aa	.
.	.	8e'J)	8ee'J) 8eee	.
*	*	*clefG2	*	*
=16	=16	=16	=16	=16
*	*	*^	*^	*
!Tempo Marking: au Mouvt	!Tempo Marking: au Mouvt	!Tempo Marking: au Mouvt	!Tempo Marking: au Mouvt	!Tempo Marking: au Mouvt	!Tempo Marking: au Mouvt	!Tempo Marking: au Mouvt
2.AA]	2.DD]	8r	8ryy	8r	8ryy	.
*	*	*	*	*8va	*	*
.	.	8a'L	(<16dLL	(>16dddLL	8aa'L	p<
.	.	.	16e)	16eee)	.	.
.	.	8aJ	(<16e	(>16eee	8aa'J	.
.	.	.	16f#JJ)	16fff#JJ)	.	.
.	.	8a'	(<16f#LL	(>16fff#LL	8aa'L	.
.	.	.	16g#)	16ggg#)	.	.
.	.	8r	(<16g#	(>16ggg#	8aa'	.
.	.	.	16a)	16aaa)	.	.
.	.	8a'	(<16a	(>16aaa	8aa'J	.
.	.	.	16g#JJ)	16ggg#JJ)	.	.
*v	*v	*	*	*	*	*
=17	=17	=17	=17	=17	=17
2.r	8a'L	(<16g#LL	(>16ggg#LL	8aa'L	[>
.	.	16f#)	16fff#)	.	.
.	8a'	(<16f#	(>16fff#	8aa'	.
.	.	16e)	16eee)	.	.
.	8a'J	(<16e	(>16eee	8aa'J	.
.	.	16dJJ)	16dddJJ)	.	.
.	8a'L	(<16dLL	(>16dddLL	8aa'L	.
.	.	16c#)	16ccc#)	.	.
.	8a'	(<16c#	(>16ccc#	8aa'	.
.	.	16d)	16ddd)	.	.
.	8a'J	(<16c#	(>16ccc#	8aa'J	.
.	.	16BJJ)	16bbJJ)	.	.
*	*v	*v	*	*	*
*	*	*v	*v	*
*	*	*X8va	*
=18	=18	=18	=18
4DD' 4AA	(<4f#~	36f#LLL	]p
.	.	(<36G	.
.	.	36B-	.
.	.	36c#	.
.	.	36f#	.
.	.	36g	.
.	.	36b-	.
.	.	36cc#	.
.	.	36ff#JJJ)	.
2r	4e-~	16e-LL	<
.	.	16ee-'	.
.	.	(>16ee-	.
.	.	16eee-'JJ)	.
.	4d-~)	16d-LL	.
.	.	16dd-'	.
.	.	(>16dd-	.
.	.	16ddd-'JJ)	.
=19	=19	=19	=19
4DD' 4AA	(>4f#~	36f#LLL	[p
.	.	36G	.
.	.	36B-	.
.	.	36c#	.
.	.	36f#	.
.	.	36g	.
.	.	36b-	.
.	.	36cc#	.
.	.	36ff#JJJ	.
2r	4e-~	16e-LL	<
.	.	16ee-'	.
.	.	(>16ee-	.
.	.	16eee-'JJ)	.
.	4b-~)	16b-LL	.
.	.	16bb-'	.
.	.	(>16bb-	.
.	.	16bbb-'JJ)	.
=20	=20	=20	=20
*	*^	*	*
!	!	!	!Expression: a Vaise	!
!	!	!	!Expression: leger	!
4DD 4AA	8r	8ryy	(>16eenLL 16bbn	[p
.	.	.	16ff# 16aa	.
!	!	!Expression: en dehors	!	!
.	8bn'L	[4A [4d [4f#	16ee 16bb	mf
.	.	.	16ff# 16aa	.
2r	[8ccn~J	.	16ee 16bb	.
.	.	.	16ff#JJ 16aa	.
.	(>16ccLL]	8A] 8d] 8f#]	16eeLL 16bb	.
.	16b)	.	16ff# 16aa	.
.	(>16b	4r	16ee 16bb	.
.	16a)	.	16ff# 16aa	.
.	(>16a	.	16ee 16bb	.
.	[16g#JJ)	.	16ff#JJ 16aa	.
*	*v	*v	*	*
=21	=21	=21	=21
2.r	16g#LL]	16eeLL 16bb	<
.	(>16a	16ff# 16aa	.
.	16b	16ee 16bb	.
.	16ccn	16ff# 16aa	.
.	16dd	16ee 16bb	.
.	[16ccJJ)	16ff#JJ 16aa	[
.	8ccL]	16eeLL 16bb	>
.	.	16ff# 16aa	.
.	8a'	16ee 16bb	.
.	.	16ff# 16aa	.
.	8f#'J	16ee 16bb	]
.	.	16ff#JJ) 16aa	.
=22	=22	=22	=22
*	*clefF4	*	*
!	!Expression: expressif	!	!
4r	(>8.F#L 8.cn 8.d	(>16eLL 16b	p
.	.	16f# 16a	.
.	.	16e 16b	.
.	16E#K 16B 16c#	16fn 16g#	.
8r	[8F#J [8cn [8d	16e 16b	.
.	.	16f#XJJ 16a	.
8DD'	8F#L] 8c] 8d]	16eLL 16b	<
.	.	16f# 16a	.
4r	8A 8c 8f#	16e 16b	.
.	.	16a	.
.	8GJ 8c 8en	16gn 16b	[
.	.	16aJJ	.
=23	=23	=23	=23
8.r	4.F# 4.cn 4.d	16eLL 16b	>
.	.	16f# 16a	.
.	.	16e 16b	.
8.DD'	.	16f# 16a	.
.	.	16e 16b	.
.	.	16f#JJ 16a	.
8.r	4.E) 4.A 4.c	16d#LL 16a	]
.	.	16e 16g	.
.	.	16d# 16a	.
8.CCn	.	16e 16g	.
.	.	16d# 16a	.
.	.	16eJJ) 16g	.
=24	=24	=24	=24
*	*^	*	*
8r	(>8.BL	4.D# 4.A	(<16c##LL 16g	.
.	.	.	16d# 16f#	.
8BBB'	.	.	16c## 16g	.
.	16c#K	.	16d# 16f#	.
8r	8BJ	.	16c## 16g#	.
.	.	.	16d#JJ) 16f#	.
!Tempo Marking: Retenu	!Tempo Marking: Retenu	!Tempo Marking: Retenu	!Tempo Marking: Retenu	!Tempo Marking: Retenu
8.r	4.A	4.C# 4.G	(<16BLL 16f#	.
.	.	.	16cn 16e	.
.	.	.	16B 16f#	.
8.AAA	.	.	16c 16e	.
.	.	.	(<16B# 16f#	.
.	.	.	16c#JJ)) 16e	.
*	*v	*v	*	*
=25	=25	=25	=25
*	*clefG2	*	*
8.r	4.c# 4.g 4.a	(>16bnLL 16ff#	.
.	.	16ccn 16ee	.
.	.	16b 16ff#	.
8.AA	.	16cc 16ee	.
.	.	(>16b# 16ff#	.
.	.	16cc#JJ)) 16ee	.
8.r	4.cc#) 4.gg 4.aa	(>16bbnLL 16fff#	>
.	.	16cccn 16eee	.
.	.	16bb 16fff#	.
8.A	.	16ccc 16eee	.
.	.	(>16bb# 16fff#	.
.	.	16ccc#ZJJ)) 16eee	]
=26	=26	=26	=26
*	*^	*^	*
!Tempo Marking: Mouvt	!Tempo Marking: Mouvt	!Tempo Marking: Mouvt	!Tempo Marking: Mouvt	!Tempo Marking: Mouvt	!Tempo Marking: Mouvt
4DD' 4AA	8r	8ryy	8r	8ryy	.
*	*	*	*8va	*	*
.	8a'L	(<16dLL	(>16dddLL	8aa'L	p<
.	.	16e)	16eee)	.	.
2r	8a'J	(<16e	(>16eee	8aa'J	.
.	.	16f#JJ)	16fff#JJ)	.	.
.	8a'	(<16f#LL	(>16fff#LL	8aa'L	.
.	.	16g#)	16ggg#)	.	.
.	8r	(<16g#	(>16ggg#	8aa'	.
.	.	16a)	16aaa)	.	.
.	8a'	(<16a	(>16aaa	8aa'J	.
.	.	16g#JJ)	16ggg#JJ)	.	.
=27	=27	=27	=27	=27	=27
2.r	8a'L	(<16g#LL	(>16ggg#LL	8aa'L	[
.	.	16f#)	16fff#)	.	.
.	8a'	(<16f#	(>16fff#	8aa'	>
.	.	16e)	16eee)	.	.
.	8a'J	(<16e	(>16eee	8aa'J	.
.	.	16dJJ)	16dddJJ)	.	.
.	8a'L	(<16dLL	(>16dddLL	8aa'L	.
.	.	16c#)	16ccc#)	.	.
.	8a'	(<16c#	(>16ccc#	8aa'	.
.	.	16d)	16ddd)	.	.
.	8a'J	(<16c#	(>16ccc#	8aa'J	.
.	.	16BJJ)	16bbJJ)	.	]
*	*v	*v	*	*	*
*	*	*v	*v	*
*	*	*X8va	*
=28	=28	=28	=28
*	*^	*	*
!	!Expression: scimtillant	!	!	!
.	(<32qqbb/LLL	.	.	.
.	32qqaa/	.	.	.
.	32qqb-/	.	.	.
.	32qqa/	.	.	.
.	32qqB-/JJJ)	.	.	.
2.r	4.A	4.ryy	8r	.
!	!	!	!Expression: doux	!
.	.	.	(<16e-LL	.
.	.	.	16f#J)	.
.	.	.	8e-'J	.
.	(<32qqbb/LLL	.	.	.
.	32qqaa/	.	.	.
.	32qqb-/	.	.	.
.	32qqa/	.	.	.
.	32qqB-/JJJ)	.	.	.
.	4.A	8r	8ryy	.
.	.	(<96e-LLL	4ryy	<
.	.	96f#	.	.
.	.	96g	.	.
.	.	96a	.	.
.	.	96b-	.	.
.	.	96cc#	.	.
.	.	96ee-	.	[
.	.	96dd	.	>
.	.	96b-	.	.
.	.	96a	.	.
.	.	96g	.	.
.	.	96f#JJ	.	.
.	.	8e-~J)	.	]
=29	=29	=29	=29	=29
.	(<32qqbb/LLL	.	.	.
.	32qqaa/	.	.	.
.	32qqb-/	.	.	.
.	32qqa/	.	.	.
.	32qqB-/JJJ)	.	.	.
2.r	4.A	4.ryy	8r	.
.	.	.	(<16e-LL	.
.	.	.	16f#J)	.
.	.	.	8e-'J	.
.	(<32qqbb/LLL	.	.	.
.	32qqaa/	.	.	.
.	32qqb-/	.	.	.
.	32qqa/	.	.	.
.	32qqB-/JJJ)	.	.	.
.	4.A	8r	8ryy	.
.	.	(<96e-LLL	4ryy	<
.	.	96f#	.	.
.	.	96g	.	.
.	.	96a	.	.
.	.	96b-	.	.
.	.	96cc#	.	.
.	.	96ee-	.	[
.	.	96dd	.	>
.	.	96b-	.	.
.	.	96a	.	.
.	.	96g	.	.
.	.	96f#JJ	.	.
.	.	[8e-~J)	.	]
*	*v	*v	*	*
=30	=30	=30	=30
!Tempo Marking: Retenu	!Tempo Marking: Retenu	!Tempo Marking: Retenu	!Tempo Marking: Retenu
2.r	4.e-X_	2.r	.
.	8e-L]	.	.
!	!Expression: en dehors	!	!
.	16e-'L	.	p
.	16e-'	.	.
.	16e-'	.	.
.	16f-'JJ	.	.
=31	=31	=31	=31
2.r	(<16e-LL	2.r	.
.	16dJJ	.	.
.	[4d-)	.	.
.	(<8d-]	.	<
.	4g~Z)	.	.
=32||	=32||	=32||	=32||
*k[b-e-a-]	*k[b-e-a-]	*k[b-e-a-]	*k[b-e-a-]
!Tempo Marking: Mouvt	!Tempo Marking: Mouvt	!Tempo Marking: Mouvt	!Tempo Marking: Mouvt
!	!Expression: m.d.	!	!
(<16BBn'LL	[2.G [2.e- [2.g	2.r	[pp
16EE-')	.	.	.
(<16BB'	.	.	.
16EE-')	.	.	.
(<16BB'	.	.	.
16EE-'JJ)	.	.	.
(<16BB'LL	.	.	.
16EE-')	.	.	.
(<16BB'	.	.	.
16EE-')	.	.	.
(<16BB'	.	.	.
16EE-'JJ)	.	.	.
=33	=33	=33	=33
(<16BBn'LL	2.G_ 2.e-_ 2.g_	2.r	.
16EE-')	.	.	.
(<16BB'	.	.	.
16EE-')	.	.	.
(<16BB'	.	.	.
16EE-'JJ)	.	.	.
(<16BB'LL	.	.	.
16EE-')	.	.	.
(<16BB'	.	.	.
16EE-')	.	.	.
(<16BB'	.	.	.
16EE-'JJ)	.	.	.
=34	=34	=34	=34
(<16BBn'LL	2.G_ 2.e-_ 2.g_	8r	.
16EE-')	.	.	.
(<16BB'	.	16bbn'LL	p
16EE-')	.	16bb'	.
(<16BB'	.	16bb'	.
16EE-'JJ)	.	16bb'JJ	.
(<16BB'LL	.	8bb~L	.
16EE-')	.	.	.
(<16BB'	.	16bb'L	.
16EE-')	.	16bb'	.
(<16BB'	.	16bb'	.
16EE-'JJ)	.	16ccc'JJ	.
=35	=35	=35	=35
(<16BBn'LL	(<4.G] 4.e-] 4.g]	(>16bbnLL	<
16EE-')	.	16bb-XJJ	.
(<16BB'	.	[4aan)	.
16EE-')	.	.	.
(<16BB'	.	.	.
16EE-'JJ)	.	.	.
(<16BB'LL	4.F~) 4.e- 4.f	8aa]	.
16EE-')	.	.	.
(<16BB'	.	4eee-~	[
16EE-')	.	.	.
(<16BB'	.	.	.
16EE-'JJ)	.	.	.
=36	=36	=36	=36
(<16BBn'LL	[2.G [2.e- [2.g	8r	pp
16EE-'	.	.	.
16BB'	.	16bbn'LL	p
16EE-'	.	16bb'	.
16BB'	.	16bb'	.
16EE-'JJ)	.	16bb'JJ	.
(<16BB'LL	.	8bb~L	.
16EE-'	.	.	.
16BB'	.	16bb'L	.
16EE-'	.	16bb'	.
16BB'	.	16bb'	.
16EE-'JJ)	.	16ccc'JJ	.
=37	=37	=37	=37
(<16BBn'LL	(<4.G] 4.e-] 4.g]	(>16bbnLL	.
16EE-'	.	16bb-JJ	.
16BB'	.	[4aan)	.
16EE-'	.	.	.
16BB'	.	.	.
16EE-'JJ)	.	.	.
(<16BB'LL	4.An) 4.f 4.an	8aa]	>
16EE-'	.	.	.
16BB'	.	4ff~	]
16EE-'	.	.	.
16BB'	.	.	.
16EE-'JJ)	.	.	.
=38	=38	=38	=38
*	*	*^	*
8EEE-	8r	8r	8ryy	.
8r	(>8E-'L 8B- 8e-	(>16ee-LL	8b-'L	pp
.	.	16ff)	.	.
2r	8F'J 8B- 8f	(>16ff	8b-'J	.
.	.	16ggJJ)	.	.
.	8G'L 8B- 8g	(>16ggLL	8b-'L	.
.	.	16aan)	.	.
.	8An' 8B- 8an	(>16aa	8b-'	.
.	.	16bb-)	.	.
.	8B-'J	(>16bb-	8b-'J	.
.	.	16aaJJ)	.	.
=39	=39	=39	=39	=39
2.r	8An'L 8B- 8an	(>16aanLL	8b-'L	>
.	.	16gg)	.	.
.	8G' 8B- 8g	(>16gg	8b-'	.
.	.	16ff)	.	.
.	8F'J 8B- 8f	(>16ff	8b-'J	.
.	.	16ee-JJ)	.	.
.	8E-'L 8B- 8e-	(>16ee-LL	8b-'L	.
.	.	16dd)	.	.
.	8D' 8B- 8d	(>16dd	8b-'	.
.	.	16ee-)	.	.
.	8C'J) 8B- 8c	(>16dd	8b-'J	]
.	.	16ccJJ)	.	.
*	*	*v	*v	*
=40	=40	=40	=40
2.EE- 2.BB-	(<4g~	36gLLL	p
.	.	(<36A-	.
.	.	36c-	.
.	.	36d	.
.	.	36g	.
.	.	36a-	.
.	.	36cc-	.
.	.	36dd	.
.	.	36ggJJJ)	.
.	4en~	16enLL	<
.	.	16een'	.
.	.	(>16ee	.
.	.	16eeenJJ)	.
.	4d~)	16dLL	.
.	.	16dd'	.
.	.	(>16dd	.
.	.	16dddJJ)	[
=41	=41	=41	=41
2.EE- 2.BB-	(>4g~	36gLLL	p
.	.	(<36A-	.
.	.	36c-	.
.	.	36d	.
.	.	36g	.
.	.	36a-	.
.	.	36cc-	.
.	.	36dd	.
.	.	36ggJJJ)	.
.	4en~	16enLL	<
.	.	16een'	.
.	.	(>16ee	.
.	.	16eeenJJ)	.
.	4bn~)	16bnLL	.
.	.	16bbn'	.
.	.	(>16bb	.
.	.	16bbbnJJ)	[
=42	=42	=42	=42
!Tempo Marking: Le double plus lent	!Tempo Marking: Le double plus lent	!Tempo Marking: Le double plus lent	!Tempo Marking: Le double plus lent
2.r	8r	2.r	.
.	16e-'LL	.	p
.	16e-'	.	.
.	16e-'	.	.
.	16e-'JJ	.	.
.	8e-'L	.	.
.	16e-'L	.	.
.	16e-'	.	.
.	16e-'	.	.
.	16f-'JJ	.	.
=43	=43	=43	=43
2.r	16e-'LL	2.r	.
.	16d'JJ	.	.
.	[4d-	.	.
.	8d-]	.	<
.	[4g~	.	.
=44||	=44||	=44||	=44||
*k[f#c#g#d#a#]	*k[f#c#g#d#a#]	*k[f#c#g#d#a#]	*
!Tempo Marking: Rubato	!Tempo Marking: Rubato	!Tempo Marking: Rubato	!Tempo Marking: Rubato
!Tempo Marking: un peu au-dessous du mouvt	!Tempo Marking: un peu au-dessous du mouvt	!Tempo Marking: un peu au-dessous du mouvt	!Tempo Marking: un peu au-dessous du mouvt
!	!	!Expression: murmurando	!
2.r	8gn]	((<24dd#LL	[pp
.	.	24a#	.
.	.	24e)	.
.	[4c#~ [4g	(<24dd#	.
.	.	24a#	.
.	.	24e)	.
.	.	(<24dd#	.
.	.	24a#	.
.	.	24eJJ)	.
.	8c#] 8g]	(<24dd#LL	.
.	.	24a#	.
.	.	24e)	.
.	4c#~ 4g	(<24dd#	.
.	.	24a#	.
.	.	24e)	.
.	.	(<24dd#	.
.	.	24a#	.
.	.	24eJJ))	.
=45	=45	=45	=45
(>16c#LL	(<8c#'L 8gn	((<24dd#LL	.
.	.	24a#	.
16F#	.	.	.
.	.	24e)	.
16c#	8c#' 8g	(<24dd#	.
.	.	24a#	.
16F#	.	.	.
.	.	24e)	.
16c#	8c#'J 8g	(<24dd#	.
.	.	24a#	.
16F#JJ	.	.	.
.	.	24eJJ)	.
16c#LL	8c#'L 8g	(<24dd#LL	.
.	.	24a#	.
16F#	.	.	.
.	.	24e)	.
16c#	8c#' 8g	(<24dd#	.
.	.	24a#	.
16F#	.	.	.
.	.	24e)	.
16c#	8c#'J) 8g	(<24dd#	.
.	.	24a#	.
16F#JJ)	.	.	.
.	.	24eJJ))	.
=46	=46	=46	=46
*	*	*^	*
(>16c#LL	8c#'L 8gn	8r	24dd#LL	.
.	.	.	24a#	.
16F#	.	.	.	.
.	.	.	24e	.
!	!	!Expression: doucement marque	!	!
16c#	8c#' 8g	(>8dd#'L 8ff#	24dd#	.
.	.	.	24a#	.
16F#	.	.	.	.
.	.	.	24e	.
16c#	8c#'J 8g	8dd#'J 8ff#	24dd#	.
.	.	.	24a#	.
16F#JJ	.	.	.	.
.	.	.	24eJJ	.
16c#LL	8c#'L 8g	8dd#'L 8ff#	24dd#LL	.
.	.	.	24a#	.
16F#	.	.	.	.
.	.	.	24e	.
16c#	8c#' 8g	8dd#' 8ff#	24dd#	.
.	.	.	24a#	.
16F#	.	.	.	.
.	.	.	24e	.
16c#	8c#'J 8g	8ee'J 8ggn	24ee	.
.	.	.	24a#	.
16F#JJ	.	.	.	.
.	.	.	24eJJ	.
=47	=47	=47	=47	=47
*M9/8	*M9/8	*M9/8	*M9/8	*M9/8
16c#LL	8c#'L 8gn	8dd#'L 8ff#	24dd#LL	>
.	.	.	24a#	.
16F#	.	.	.	.
.	.	.	24e	.
16c#	8c#' 8g	8ddn' 8ee#	24dd#	.
.	.	.	24a#	.
16F#	.	.	.	.
.	.	.	24e	.
16c#	8c#'J 8g	8cc#'J [8een	24cc#	.
.	.	.	24a#	.
16F#JJ	.	.	.	.
.	.	.	24eJJ	.
16c#LL	8c#'L 8g	4.ee]	24cc#LL	]<
.	.	.	24a#	.
16F#	.	.	.	.
.	.	.	24e	.
16c#	8c#' 8g	.	24cc#	.
.	.	.	24a#	.
16F#	.	.	.	.
.	.	.	24e	.
16c#	8c#'J 8g	.	24cc#	.
.	.	.	24a#	.
16F#JJ	.	.	.	.
.	.	.	24eJJ	.
4.C#)	(<24C#LL	4.aa#~)	4ryy	.
.	24G#	.	.	.
.	24A#	.	.	.
.	24e	.	.	.
.	24g#	.	.	.
.	24a#	.	.	.
.	24ee	.	8ryy	.
.	24gg#	.	.	.
.	24a#JJ)	.	.	.
=48	=48	=48	=48	=48
*M6/8	*M6/8	*M6/8	*M6/8	*M6/8
(>16c#LL	8c#'L 8gn	8r	24dd#LL	[pp
.	.	.	24a#	.
16F#	.	.	.	.
.	.	.	24e	.
16c#	8c#' 8g	(>8dd#'L 8ff#	24dd#	.
.	.	.	24a#	.
16F#	.	.	.	.
.	.	.	24e	.
16c#	8c#'J 8g	8dd#'J 8ff#	24dd#	.
.	.	.	24a#	.
16F#JJ	.	.	.	.
.	.	.	24eJJ	.
16c#LL	8c#'L 8g	8dd#'L 8ff#	24dd#LL	.
.	.	.	24a#	.
16F#	.	.	.	.
.	.	.	24e	.
16c#	8c#' 8g	8dd#' 8ff#	24dd#	.
.	.	.	24a#	.
16F#	.	.	.	.
.	.	.	24e	.
16c#	8c#'J 8g	8ee'J) 8ggn	24ee	.
.	.	.	24a#	.
16F#JJ)	.	.	.	.
.	.	.	24eJJ	.
=49	=49	=49	=49	=49
(>16c#LL	4.c# 4.gn	(>4.dd#~ 4.ff#	24dd#LL	.
.	.	.	24a#	.
16F#	.	.	.	.
.	.	.	24e	.
16c#	.	.	24dd#	.
.	.	.	24a#	.
16F#	.	.	.	.
.	.	.	24e	.
16c#	.	.	24dd#	.
.	.	.	24a#	.
16F#JJ	.	.	.	.
.	.	.	24eJJ	.
16BLL	4.B- 4.fn	4.ccn~ 4.ee-	24ccLL	.
.	.	.	24gn	.
16E-	.	.	.	.
.	.	.	24d-	.
16B	.	.	24cc	.
.	.	.	24g	.
16E-	.	.	.	.
.	.	.	24d-	.
16B	.	.	24cc	.
.	.	.	24g	.
16E-JJ)	.	.	.	.
.	.	.	24d-JJ	.
=50	=50	=50	=50	=50
(>16GnLL	[4.Gn [4.dn	[4.an~ [4.ccn	24aLL	.
.	.	.	24e	.
16Cn	.	.	.	.
.	.	.	24B-	.
16G	.	.	24a	.
.	.	.	24e	.
16C	.	.	.	.
.	.	.	24B-	.
16G	.	.	24a	.
.	.	.	24e	.
16CJJ	.	.	.	.
.	.	.	24B-JJ	.
16GLL	8G] 8d]	8a] 8cc]	24aLL	<
.	.	.	24e	.
16C	.	.	.	.
.	.	.	24B-	.
16B-	4B- 4fn	4cc~) 4ee-	24cc	.
.	.	.	24gn	.
16E-	.	.	.	.
.	.	.	24d-	.
16B-	.	.	24cc	.
.	.	.	24g	.
16E-JJ)	.	.	.	.
.	.	.	24d-JJ	.
=51	=51	=51	=51	=51
(>16c#LL	4.c# 4.gn	(>4.dd# 4.ff#	24dd#LL	[pp
.	.	.	24a#	.
16F#	.	.	.	.
.	.	.	24en	.
16c#	.	.	24dd#	.
.	.	.	24a#	.
16F#	.	.	.	.
.	.	.	24e	.
16c#	.	.	24dd#	.
.	.	.	24a#	.
16F#JJ	.	.	.	.
.	.	.	24eJJ	.
16B-LL	4.B- 4.fn	4.ccn 4.ee-	24ccLL	.
.	.	.	24gn	.
16E-	.	.	.	.
.	.	.	24d-	.
16B-	.	.	24cc	.
.	.	.	24g	.
16E-	.	.	.	.
.	.	.	24d-	.
16B-	.	.	24cc	.
.	.	.	24g	.
16E-JJ	.	.	.	.
.	.	.	24d-JJ	.
=52	=52	=52	=52	=52
16G#LL	4.Gn 4.dn	4.an 4.ccn	24a#XLL	.
.	.	.	24en	.
16Cn	.	.	.	.
.	.	.	24B-	.
16G#	.	.	24a#	.
.	.	.	24e	.
16C	.	.	.	.
.	.	.	24B-	.
16G#	.	.	24a#	.
.	.	.	24e	.
16CJJ	.	.	.	.
.	.	.	24B-JJ	.
16G#LL	4.E 4.Bn	4.f# 4.an	24f#LL	.
.	.	.	24c#	.
16C	.	.	.	.
.	.	.	24Gn	.
16G#	.	.	24f#	.
.	.	.	24c#	.
16C	.	.	.	.
.	.	.	24G	.
16G#	.	.	24f#	.
.	.	.	24c#	.
16CJJ	.	.	.	.
.	.	.	24GJJ	.
=53	=53	=53	=53	=53
*^	*	*	*	*
16C#LL	4.C# 4.Gn	2.r	4.d#X 4.f#X	24d#LL	.
.	.	.	.	24A#	.
16FF#	.	.	.	.	.
.	.	.	.	24E	.
16C#	.	.	.	24d#	.
.	.	.	.	24A#	.
16FF#	.	.	.	.	.
.	.	.	.	24E	.
16C#	.	.	.	24d#	.
.	.	.	.	24A#	.
16FF#JJ	.	.	.	.	.
.	.	.	.	24EJJ	.
16BBLL	4.BB- 4.Fn	.	4.cn) 4.e-	24cLL	.
.	.	.	.	24Gn	.
16EE-	.	.	.	.	.
.	.	.	.	24D-	.
16BBn	.	.	.	24c	.
.	.	.	.	24G	.
16EE-	.	.	.	.	.
.	.	.	.	24D-	.
16BB	.	.	.	24c	.
.	.	.	.	24G	.
16EE-JJ)	.	.	.	.	.
.	.	.	.	24D-JJ	.
*v	*v	*	*v	*v	*
=54||	=54||	=54||	=54||
*k[f#c#]	*k[f#c#]	*k[f#c#]	*k[f#c#]
*^	*	*	*
!Tempo Marking: Mouvt	!Tempo Marking: Mouvt	!Tempo Marking: Mouvt	!Tempo Marking: Mouvt	!Tempo Marking: Mouvt
8GG~ 8AA	(<16AAALL	2.r	2.r	.
.	16GGG')	.	.	.
8r	(<16BBB-	.	.	.
.	16GGG')	.	.	.
8GG~ 8AA	(<16BBBn	.	.	.
.	16GGG'JJ)	.	.	.
8r	(<16CCnLL	.	.	.
.	16GGG')	.	.	.
8GG~ 8AA	(<16CC#	.	.	.
.	16GGG')	.	.	.
8r	(<16DD	.	.	.
.	16GGG'JJ)	.	.	.
=55	=55	=55	=55	=55
!	!Expression: simile	!	!	!
8GG~ 8AA	16EE-LL	2.r	2.r	.
.	16GGG	.	.	.
8r	16DD	.	.	.
.	16GGG	.	.	.
8GG~ 8AA	16DD-	.	.	.
.	16GGGJJ	.	.	.
8r	16CCnLL	.	.	.
.	16GGG	.	.	.
8GG~ 8AA	16BBB	.	.	.
.	16GGG	.	.	.
8r	16BBB-	.	.	.
.	16GGGJJ	.	.	.
=56	=56	=56	=56	=56
*	*	*clefF4	*	*
8GG 8AA	16AAALL	8r	2.r	.
.	16GGG	.	.	.
8r	16BBB-	16E-'LL	.	pp
.	16GGG	16E-'	.	.
8GG 8AA	16BBBn	16E-'	.	.
.	16GGGJJ	16E-'JJ	.	.
8r	16CCnLL	8E-~L	.	.
.	16GGG	.	.	.
8GG 8AA	16CC#X	16E-'L	.	<
.	16GGG	16E-'	.	.
8r	16DD	16E-'	.	.
.	16GGGJJ	16F-'JJ	.	[
=57	=57	=57	=57	=57
8GG~ 8AA	16EE-LL	(>16E-LL	2.r	>
.	16GGG	16DJJ	.	.
8r	16DDn	[4D-	.	]
.	16GGG	.	.	.
8GG~ 8AA	16DD-	.	.	.
.	16GGGJJ	.	.	.
8r	16CCnLL	8D-]	.	.
.	16GGG	.	.	.
8GG~ 8AA	16BBB	4G~)	.	.
.	16GGG	.	.	.
8r	16BBB-	.	.	.
.	16GGGJJ	.	.	.
=58	=58	=58	=58	=58
8GG 8AA	16AAALL	8r	2.r	.
.	16GGG	.	.	.
8r	16BBB-	4EE-~ 4E-	.	p
.	16GGG	.	.	.
8GG 8AA	16BBBn	.	.	.
.	16GGGJJ	.	.	.
8r	16CCnLL	8r	.	.
.	16GGG	.	.	.
8GG 8AA	16CC#	4E-~ 4e-	.	.
.	16GGG	.	.	.
8r	16DD	.	.	.
.	16GGGJJ	.	.	.
*v	*v	*	*	*
=59	=59	=59	=59
16FFnLL	8r	2.r	<
16GGG	.	.	.
16FF#	4E-~ 4e-	.	.
16GGG	.	.	.
16GG	.	.	.
16GGGJJ	.	.	.
*	*clefG2	*	*
16GG#LL	8r	.	.
16GGGn	.	.	.
16AA	4e-~ 4ee-	.	.
16GGG	.	.	[
16BB-	.	.	.
16GGGJJ	.	.	.
=60	=60	=60	=60
*	*clefF4	*	*
*^	*^	*	*
*	*	*	*clefF4	*	*
8GG	16AAALL	8AA'L	4r	2.r	pp
.	16GGG	.	.	.	.
8r	16BBB-	8BB-'	.	.	.
.	16GGG	.	.	.	.
8GG	16BBBn	8BBn'J	[8AA	.	.
.	16GGGJJ	.	.	.	.
8r	16CCnLL	8Cn'L	8AAL]	.	.
.	16GGG	.	.	.	.
8GG	16CC#	8C#'	8AAJ	.	.
.	16GGG	.	.	.	.
8r	16DD	8D'J	8r	.	.
.	16GGGJJ	.	.	.	.
*v	*v	*	*	*	*
=61	=61	=61	=61	=61
16r	8Fn'L	8GG	2.r	<
16FFn	.	.	.	.
16r	8F#'	8r	.	.
16FF#	.	.	.	.
16r	8G'J	8r	.	.
16GG	.	.	.	.
16r	8G#'L	8r	.	.
16GG#	.	.	.	.
16r	8A'	8Gn	.	.
16AA	.	.	.	.
16r	8B-'J	8r	.	.
16BB-	.	.	.	.
=62	=62	=62	=62	=62
*	*clefG2	*	*	*
!	!	!	!	!Dynamic Expression: subito
>4.B-	8r	4.ryy	4.r	[pp
.	(16e-LL	.	.	.
.	16f#J	.	.	.
.	8e-'J)	.	.	.
8ryy	8r	4.d-~) 4.dd-	8r	.
4ryy	4ryy	.	(>96ee-LLL	.
.	.	.	96ff#X	.
.	.	.	96gg	.
.	.	.	96aa	.
.	.	.	96bb-	.
.	.	.	96ddd-	.
.	.	.	96eee-	.
.	.	.	96dddn	.
.	.	.	96bb-	.
.	.	.	96aa	.
.	.	.	96gg	.
.	.	.	96ff#JJ	.
.	.	.	8ee-J)	.
=63	=63	=63	=63	=63
>4.B-	8r	4.ryy	2.r	pp
.	(16e-LL	.	.	.
.	16f#XJ	.	.	.
.	8e-'J)	.	.	.
8r	8r	4.d-~) 4.dd-	.	.
4r	(>96ee-LLL	.	.	<
.	96ff#X	.	.	.
.	96gg	.	.	.
.	96aa	.	.	.
.	96bb-	.	.	.
.	96ccc#	.	.	.
.	96eee-	.	.	[
.	96ddd	.	.	>
.	96bb-	.	.	.
.	96aa	.	.	.
.	96gg	.	.	.
.	96ff#JJ	.	.	.
.	8ee-J)	.	.	]
*	*v	*v	*	*
=64	=64	=64	=64
4.r	8r	2.r	.
.	(<96e-LLL	.	<
.	96f#	.	.
.	96g	.	.
.	96a	.	.
.	96b-	.	.
.	96cc#	.	.
.	96ee-	.	[
.	96dd	.	>
.	96b-	.	.
.	96a	.	.
.	96g	.	.
.	96f#JJ	.	.
.	8e-J)	.	]
8r	8r	.	.
8r	4r	.	.
16r	.	.	.
(<48E-LLL	.	.	>
48D-	.	.	.
48BB-JJJ	.	.	.
=65	=65	=65	=65
[2.DDD)	8r	2.r	]pp
!	!Expression: aussi leger que possible	!	!
.	(>32ALLL	.	p
.	32d	.	.
.	32f#	.	.
.	32a	.	.
.	32c#	.	<
.	32f#	.	.
.	32a#X	.	.
.	32cc#JJJ	.	.
.	32anLLL	.	.
.	32dd	.	.
.	32ff#	.	.
.	32aa	.	.
.	32cc#	.	.
.	32ff#	.	.
.	32aa#	.	.
.	32ccc#	.	.
.	32aan	.	.
.	32ddd	.	.
.	32fff#	.	.
.	32aaaJJJ	.	.
=66	=66	=66	=66
*	*8va	*	*
2.DDD]	4fff#) 4aaa# 4cccc#	4r	[
*	*X8va	*	*
.	8r	8r	.
*	*clefF4	*	*
.	4.F# 4.A# 4.c#	4.f#~ 4.a# 4.cc#	pp
=67	=67	=67	=67
*	*clefG2	*	*
[2.DDD	8r	2.r	pp
.	(>32ALLL	.	p
.	32d	.	.
.	32f#	.	.
.	32a	.	.
.	32c#	.	<
.	32f#	.	.
.	32a#X	.	.
.	32cc#JJJ	.	.
.	32anLLL	.	.
.	32dd	.	.
.	32ff#	.	.
.	32aa	.	.
.	32cc#	.	.
.	32ff#	.	.
.	32aa#X	.	.
.	32ccc#	.	.
.	32aan	.	.
.	32ddd	.	.
.	32fff#	.	.
.	32aaaJJJ	.	.
=68	=68	=68	=68
*	*8va	*	*
2.DDD]	4fff#) 4aaa# 4cccc#	4r	[
*	*X8va	*	*
.	8r	8r	.
*	*clefF4	*	*
.	4.F# 4.A# 4.c#	4.f#~ 4.a# 4.cc#	pp
=69	=69	=69	=69
*	*clefG2	*	*
[2.DD	(<32ALLL	2.r	pp<
.	32d	.	.
.	32f#	.	.
.	32a	.	.
.	32c#	.	.
.	32f#	.	.
.	32a#X	.	.
.	32cc#	.	.
.	32an	.	.
.	32dd	.	.
.	32ff#	.	.
.	32aaJJJ)	.	[
.	(>32ccc#LLL	.	>
.	32aa#X	.	.
.	32ff#	.	.
.	32cc#	.	.
.	32a	.	.
.	32dd	.	.
.	32ff#	.	.
.	32aan	.	.
.	32cc#	.	.
.	32a	.	.
.	32f#	.	.
.	32c#JJJ)	.	]
=70	=70	=70	=70
2.DD]	(<32ALLL	2.r	pp<
.	32d	.	.
.	32f#	.	.
.	32a	.	.
.	32c#	.	.
.	32f#	.	.
.	32a#X	.	.
.	32cc#	.	.
.	32an	.	.
.	32dd	.	.
.	32ff#	.	.
.	32aaJJJ)	.	[
.	(>32ccc#LLL	.	>
.	32aa#X	.	.
.	32ff#	.	.
.	32cc#	.	.
.	32a	.	.
.	32dd	.	.
.	32ff#	.	.
.	32aan	.	.
.	32cc#	.	.
.	32a	.	.
.	32f#	.	.
.	32c#JJJ)	.	]
=71	=71	=71	=71
2.DD	8r	2.r	.
.	(>32ALLL	.	pp
.	32d	.	.
.	32f#	.	.
.	32a	.	.
.	32c#	.	.
.	32f#	.	.
.	32a#	.	.
.	32cc#JJJ	.	.
.	32anLLL	.	<
.	32dd	.	.
.	32ff#	.	.
.	32aa	.	.
.	32cc#	.	.
.	32ff#	.	.
.	32aa#X	.	.
.	32ccc#	.	.
.	32aan	.	.
.	32ddd	.	.
.	32fff#	.	.
.	32aaaJJJ	.	[
=72	=72	=72	=72
*	*8va	*	*
4.ryy	4fff#) 4aaa# 4cccc#	2.ryy	.
*	*X8va	*	*
.	8r	.	.
(<[32qqD/LLL	.	.	p
32qqA/_	.	.	.
32qqd/	.	.	.
32qqf#/	.	.	.
32qqan/JJJ)	.	.	.
!	!	!Expression: m.g.	!
4.D_ [4.A	[4.d~^^ [4.f# [4.a [4.dd [4.ff#	.	.
=73	=73	=73	=73
2.D_ 2.A_	2.d_ 2.f#_ 2.a_ 2.dd_ 2.ff#_	2.ryy	pp
=74	=74	=74	=74
4.D] 4.A]	4.d] 4.f#] 4.a] 4.dd] 4.ff#]	2.ryy	.
8r	8r	.	.
4r	4r	.	.
==	==	==	==
*-	*-	*-	*-
!!!system-decoration: [({(s1,s2,s3)})]
!!!RDF**kern: > = above
!!!RDF**kern: < = below
!!!RDF**kern: Z = caesura
